X:59
T:Cup of Tea
R:Reel
M:4/4
L:1/8
K:EDor
|:BAGF GEEF|GEBE GEEA|BAGF GEEG|FDAD FDDA|
|BAGF GEEF|GEBE GEEA|BAGF GAB^c|1 dBAG FDDA:|2 dBAG FDD2|
|:d2 eg fdec|d2eg fB~B2|d2 eg fdec|dBAG FDD2|
|d2 eg fdec|dfaf g2fg|afge fdec|dBAG FDD2:|
|:FAdA FABA|FAdA FE~E2|~F3A BABc|dBAG FDD2|
|FAdA FABA|FAde fe~e2|fedc dBAF|1 GBAG FDD2:|2 GBAG FDDA|
